!!!!SEGMENT: pl-cz--iii-98--002_danik-jan-ignac--offertorium-eia-omnes.krn
!!!cenid: 17xx:870
!!!COM: Danik, Ján Ignác
!!!COM-rismID: pe30000792
!!!CDT: ~1700-~1799
!!!CNT: Czech
!!!OPR: Offertorium
!!!OTL: Eia omnes
!!!OMV: 002
!!!PDT: 1773
!!!AGN: Sacred
!!!SMS-siglum: PL-CZ
!!!SMS-shelfmark: III-98
!!!SMS-shelfwork: 001-002 M
!!!SMS-variant:
!!!SMS-altvar:
!!!NIFC-rismSourceID: 300000097
!!!NIFC-islandoraID: pl-cz:41807
!!!URL-pdf-islandora: https://repozytorium.nifc.pl/islandora/object/pl-cz%3A41807/datastream/PDF/view
!!!URL-scan:
!!!ONB-nifc: UWAGA: części Offertorium: Ave Mater, Eia omnes. Uwaga: brak partii clno 1, 2
!!!AIN: 2 empty 1 organ 1 tenor 1 violn 2 vox
!!!key: D
**kern	**fba	**kern	**kern	**kern	**text	**kern	**text	**kern	**text	**kern	**text
*part7	*part7	*part6	*part5	*part4	*part4	*part3	*part3	*part2	*part2	*part1	*part1
*staff7	*	*staff6	*staff5	*staff4	*staff4	*staff3	*staff3	*staff2	*staff2	*staff1	*staff1
*Iorgan	*	*Iempty	*Ivioln	*Iempty	*	*Itenor	*	*Ivox	*	*Ivox	*
*I"Organo.	*	*I"Violino 2do Ex D. # #	*I"Violino Primo.	*I"Baſso.	*	*I"Tenore.	*	*I"Canto Secundo.	*	*I"Canto Primo.	*
*I'org	*	*I'vl 2	*I'vl 1	*I'B	*	*I'T	*	*I'S 2	*	*I'S 1	*
*ICklav	*	*ICstr	*ICstr	*ICvox	*	*ICvox	*	*ICvox	*	*ICvox	*
*clefF4	*	*clefG2	*clefG2	*clefF4	*	*clefC4	*	*clefC1	*	*clefC1	*
*k[f#c#]	*	*k[f#c#]	*k[f#c#]	*k[f#c#]	*	*k[f#c#]	*	*k[c#f#]	*	*k[f#c#]	*
*D:	*	*D:	*D:	*D:	*	*D:	*	*D:	*	*D:	*
*M2/4	*	*M2/4	*M2/4	*M2/4	*	*M2/4	*	*M2/4	*	*M2/4	*
=1	=1	=1	=1	=1	=1	=1	=1	=1	=1	=1	=1
!	!	!	!	!	!	!	!	!LO:TX:a:t=P:problem=kolejność krzyżyków&colon;cc#, f#	!	!	!
!LO:TX:a:t=Chorus	!	!LO:TX:a:t=Chorus	!	!	!	!LO:TX:a:t=P:problem=kolejność krzyżyków&colon;c#, F#	!	!LO:TX:a:t=all(egr)o.	!	!LO:TX:a:t=P:problem=2\, 4\, 8\, 16\&colon;global	!
!utti	!	!LO:TX:a:t=all(egr)o.	!	!LO:TX:a:t=all(egr)o.	!	!LO:TX:a:t=all(egr)o.	!	!utti.	!	!LO:TX:a:rj:t=Tutti	!
!LO:SIC:v:t=partia na skanach 0002 i 0015; prawdopodobnie jako "obwoluta" dla pozostałych głosów	!	!utti	!LO:TX:a:t=Chorus	!LO:TX:a:t=Chorus	!	!LO:TX:a:t=Chorus	!	!LO:TX:a:t=Chorus.	!	!LO:TX:a:t=Chorus	!
4d\	.	4ff#\	4aa\	4d\	E-	4A\	E-	4ff#\	E-	4aa\	E-
4D\	.	4dd\	4ff#\	4D/	-ja	4d\	-ja	4dd\	-ja	4ff#\	-ja
=2	=2	=2	=2	=2	=2	=2	=2	=2	=2	=2	=2
*tremolo	*	*	*	*	*	*	*	*	*	*	*
!	!	!	!	!	!	!	!	!	!	!LO:TX:a:t=1	!
8D/L	.	(16a/LL	(16dd\LL	2r	.	2r	.	2r	.	2r	.
.	.	16f#/)	16a\)	.	.	.	.	.	.	.	.
8D/	.	(16dd/	(16ff#\	.	.	.	.	.	.	.	.
.	.	16a/JJ)	16dd\JJ)	.	.	.	.	.	.	.	.
8D/	.	(16ff#\LL	(16aa\LL	.	.	.	.	.	.	.	.
.	.	16dd\J)	16ff#\J)	.	.	.	.	.	.	.	.
!	!	!LO:TX:a:t=|	!	!	!	!	!	!	!	!	!
8D/J	.	8aa\J	8ddd\J	.	.	.	.	.	.	.	.
*Xtremolo	*	*	*	*	*	*	*	*	*	*	*
=3	=3	=3	=3	=3	=3	=3	=3	=3	=3	=3	=3
4A\	7	4ee\	4gg\	4A\	om-	4c#\	om-	4ee\	om-	4gg\	Om-
4AA/	.	4cc#\	4ee\	4AA/	-nes	4c#\	-nes	4cc#\	-nes	4ee\	-nes
=4	=4	=4	=4	=4	=4	=4	=4	=4	=4	=4	=4
*tremolo	*	*	*	*	*	*	*	*	*	*	*
!	!	!	!	!	!	!	!	!	!	!LO:TX:a:t=1.	!
8AA/L	.	(16e/LL	(16a/LL	2r	.	2r	.	2r	.	2r	.
.	.	16c#/)	16e/)	.	.	.	.	.	.	.	.
8AA/	.	(16a/	(16cc#/	.	.	.	.	.	.	.	.
.	.	16e/JJ)	16a/JJ)	.	.	.	.	.	.	.	.
8AA/	.	(16cc#\LL	(16ee\LL	.	.	.	.	.	.	.	.
.	.	16a\J)	16cc#\J)	.	.	.	.	.	.	.	.
!	!	!LO:TX:a:t=|	!LO:TX:a:t=|	!	!	!	!	!	!	!	!
8AA/J	.	8ee\J	8gg\J	.	.	.	.	.	.	.	.
*Xtremolo	*	*	*	*	*	*	*	*	*	*	*
=5	=5	=5	=5	=5	=5	=5	=5	=5	=5	=5	=5
4D\	.	4a/	4ff#\	4d\	u-	4A\	u-	4a\	u-	4ff#\	u-
4DD/	.	4f#/	4dd\	4D/	-na	4A\	-na	4f#/	-na	4dd\	-na
=6	=6	=6	=6	=6	=6	=6	=6	=6	=6	=6	=6
*2\right	*	*	*	*	*	*	*	*	*	*	*
*tremolo	*	*	*	*	*	*	*	*	*	*	*
!	!	!	!	!	!	!	!	!	!	!LO:TX:a:t=1	!
8D\L	.	(16d/LL	(16f#/LL	2r	.	2r	.	2r	.	2r	.
.	.	16A/)	16d/)	.	.	.	.	.	.	.	.
8D\	.	(16f#/	(16a/	.	.	.	.	.	.	.	.
.	.	16d/JJ)	16f#/JJ)	.	.	.	.	.	.	.	.
!	!	!LO:LB:g=original	!	!	!	!	!	!	!	!	!
8D\	.	(16a/LL	(16dd\LL	.	.	.	.	.	.	.	.
.	.	16f#/J)	16a\J)	.	.	.	.	.	.	.	.
!	!	!	!LO:TX:a:t=|	!	!	!	!	!	!	!	!
8D\J	.	8dd/J	8ff#\J	.	.	.	.	.	.	.	.
*Xtremolo	*	*	*	*	*	*	*	*	*	*	*
=7	=7	=7	=7	=7	=7	=7	=7	=7	=7	=7	=7
8AA/L	7	8cc#\	8ee\	(8A\L	Vo-	(4A\	Vo-	(8cc#\	Vo-	(8ee\	Vo-
8BB/	.	4ee\	4gg\	8B\J)	.	.	.	4ee\)	.	4gg\)	.
8C#/	.	.	.	(8c#\L	.	4A\)	.	.	.	.	.
8D/J	.	8dd\	8ff#\	8d\J)	.	.	.	8dd\	.	8ff#\	.
=8	=8	=8	=8	=8	=8	=8	=8	=8	=8	=8	=8
!LO:TX:A:t=P:problem=mixed beam	!	!	!LO:TX:A:t=P:problem=mixed beam	!	!	!	!	!	!	!	!
8AA/L	.	(8cc#/L	8ee\L	4A\	-ce	4A\	-ce	4cc#\	-ce	4ee\	-ce
!LO:TX:a:t=|	!	!	!	!	!	!	!	!	!	!	!
16A\L	.	(16a/L)	(16a/L	.	.	.	.	.	.	.	.
!LO:TX:a:t=|	!	!	!	!	!	!	!	!	!	!	!
16G#X\JJ	.	16g#X/JJ)	16g#X/JJ)	.	.	.	.	.	.	.	.
!LO:TX:A:t=P:problem=mixed beam	!	!	!	!	!	!	!	!	!	!	!
!LO:TX:a:t=|	!	!	!	!	!	!	!	!	!	!	!
8A\L	.	8a/L	8a/L	4r	.	4r	.	4r	.	4r	.
!LO:TX:a:t=|	!	!	!	!	!	!	!	!	!	!	!
8AA/J	.	8A/J	8A/J	.	.	.	.	.	.	.	.
!LO:LB:g=original	!	!	!	!	!	!LO:LB:g=original	!	!	!	!	!
=9	=9	=9!|:	=9	=9	=9	=9	=9	=9	=9	=9	=9
!LO:TX:A:t=P:problem=mixed beam	!	!	!	!	!	!	!	!	!	!	!
8AA/L	5 3	4cc#\	4ee\	4A\	Lau-	4A\	Lau-	4cc#\	Lau-	4ee\	Lau-
8A\J	.	.	.	.	.	.	.	.	.	.	.
!	!	!	!	!LO:LB:g=original	!	!	!	!	!	!	!
!LO:TX:A:t=P:problem=mixed beam	!	!	!	!	!	!	!	!	!	!	!
8AA/L	6 4	8dd\L	8ff#\L	8A\	-des	8A\	-des	8dd\	-des	8ff#\	-des
8A\J	.	8dd\J	8ff#\J	8A\	Ma-	8A\	Ma-	8dd\	Ma-	8ff#\	Ma-
!	!	!	!LO:LB:g=original	!	!	!	!	!LO:LB:g=original	!	!LO:LB:g=original	!
=10	=10	=10	=10	=10	=10	=10	=10	=10	=10	=10	=10
!LO:TX:A:t=P:problem=mixed beam	!	!	!	!	!	!	!	!	!	!	!
.	.	.	8qqaa/	.	.	.	.	.	.	.	.
8AA/L	7 5 3	4ee\	4gg\	4A\	-ri-	4c#\	-ri-	4ee\	-ri-	4gg\	-ri-
8A\J	.	.	.	.	.	.	.	.	.	.	.
!LO:TX:A:t=P:problem=mixed beam	!	!	!	!	!	!	!	!	!	!	!
8AA/L	6 4	4dd\	4ff#\	4A\	-ae,	4A\	-ae	4dd\	-ae	4ff#\	-ae
8A\J	.	.	.	.	.	.	.	.	.	.	.
=11	=11	=11:|!	=11	=11	=11	=11	=11	=11	=11	=11	=11
!LO:TX:A:t=P:problem=mixed beam	!	!LO:TX:a:t=P:problem=t. 11-12 zapisane powtórką	!	!	!	!	!	!	!	!	!
8AA/L	5 3	4cc#\yy	4ee\	4A\	lae-	4A\	lae-	4cc#\	lae-	4ee\	le-
8A\J	.	.	.	.	.	.	.	.	.	.	.
!LO:TX:A:t=P:problem=mixed beam	!	!	!	!	!	!	!	!	!	!	!
8AA/L	6 4	8dd\Lyy	8ff#\L	8A\	-te	8A\	-te	8dd\	-te	8ff#\	-te
8A\J	.	8dd\Jyy	8ff#\J	8A\	can-	8A\	can-	8dd\	can-	8ff#\	can-
=12	=12	=12	=12	=12	=12	=12	=12	=12	=12	=12	=12
*	*	*	*	*2\right	*	*	*	*	*	*	*
!LO:TX:A:t=P:problem=mixed beam	!	!	!	!LO:TX:a:t=P:problem=interpretacja ozdobnika niepewna	!	!	!	!	!	!	!
8AA/L	7 5 3	4ee\yy	4gg\	2AT\	-te-	(4c#\	-te-	(4ee\	-te-	(4gg\	-te-
8A\J	.	.	.	.	.	.	.	.	.	.	.
!LO:TX:A:t=P:problem=mixed beam	!	!	!	!	!	!	!	!	!	!	!
8AA/L	6 4	4dd\yy	4ff#\	.	.	4A\)	.	4dd\)	.	4ff#\)	.
8A\J	.	.	.	.	.	.	.	.	.	.	.
=13	=13	=13	=13	=13	=13	=13	=13	=13	=13	=13	=13
16AA\LL	5 3	16cc#/LL	16ee/LL	4A\	-mus,	4A\	-mus,	4cc#\	-mus,	4ee\	-mus,
!LO:TX:a:t=|	!	!	!	!	!	!	!	!	!	!	!
16A\	.	16a/	16a/	.	.	.	.	.	.	.	.
!LO:TX:a:t=|	!	!	!	!	!	!	!	!	!	!	!
16G#X\	.	16g#X/	16g#X/	.	.	.	.	.	.	.	.
!LO:TX:a:t=|	!	!	!	!	!	!	!	!	!	!	!
16F#\JJ	.	16f#/JJ	16f#/JJ	.	.	.	.	.	.	.	.
!LO:TX:a:t=|	!	!	!	!	!	!	!	!	!	!	!
16E/LL	.	16e/LL	16e/LL	4r	.	4r	.	4r	.	4r	.
!LO:TX:a:t=|	!	!	!	!	!	!	!	!	!	!	!
16D/	.	16d/	16d/	.	.	.	.	.	.	.	.
!LO:TX:a:t=|	!	!	!	!	!	!	!	!	!	!	!
16C#/	.	16c#/	16c#/	.	.	.	.	.	.	.	.
!LO:TX:a:t=|	!	!	!	!	!	!	!	!	!	!	!
16BB/JJ	.	16B/JJ	16B/JJ	.	.	.	.	.	.	.	.
=14	=14	=14	=14	=14	=14	=14	=14	=14	=14	=14	=14
4AA/	.	4cc#/ 4e/ 4A/	4ee/ 4a/ 4e/ 4A/	4A\	E-	4c#\	e-	4cc#\	e-	4ee\	E-
4A\	.	4a/	4cc#\	4AA/	-ja	4c#\	-ja	4a\	-ja	4cc#\	-ja
=15	=15	=15	=15	=15	=15	=15	=15	=15	=15	=15	=15
*tremolo	*	*	*	*	*	*	*	*	*	*	*
!	!	!	!	!	!	!	!	!	!	!LO:TX:a:t=1	!
8A\L	.	(16e/LL	(16a/LL	2r	.	2r	.	2r	.	2r	.
.	.	16c#/)	16e/)	.	.	.	.	.	.	.	.
8A\	.	(16a/	(16cc#/	.	.	.	.	.	.	.	.
.	.	16e/JJ)	16a/JJ)	.	.	.	.	.	.	.	.
8A\	.	(16cc#\LL	(16ee\LL	.	.	.	.	.	.	.	.
.	.	16a\J)	16cc#\J)	.	.	.	.	.	.	.	.
!	!	!LO:TX:a:t=|	!LO:TX:a:t=|	!	!	!	!	!	!	!	!
8A\J	.	8ee\J	8aa\J	.	.	.	.	.	.	.	.
*Xtremolo	*	*	*	*	*	*	*	*	*	*	*
=16	=16	=16	=16	=16	=16	=16	=16	=16	=16	=16	=16
4E\	9 #	4b\	4dd\	4e\	om-	4G#X/	om-	4b\	om-	4dd\	Om-
4EE/	.	4g#X/	4b\	4E\	-nes	4B\	-nes	4g#X\	-nes	4b\	-nes
!LO:LB:g=original	!	!LO:LB:g=original	!	!	!	!	!	!	!	!	!
=17	=17	=17	=17	=17	=17	=17	=17	=17	=17	=17	=17
*tremolo	*	*	*	*	*	*	*	*	*	*	*
!	!	!	!	!	!	!	!	!	!	!LO:TX:a:t=1	!
8E\L	7 #	(16e/LL	(16g#X/LL	2r	.	2r	.	2r	.	2r	.
.	.	16B/)	16e/)	.	.	.	.	.	.	.	.
8E\	.	(16g#X/	(16b/	.	.	.	.	.	.	.	.
.	.	16e/JJ)	16g#/JJ)	.	.	.	.	.	.	.	.
8E\	.	(16b\LL	(16dd\LL	.	.	.	.	.	.	.	.
.	.	16g#\J)	16b\J)	.	.	.	.	.	.	.	.
!	!	!LO:TX:a:t=|	!	!	!	!	!	!	!	!	!
8E\J	.	8dd\J	8bb\J	.	.	.	.	.	.	.	.
*Xtremolo	*	*	*	*	*	*	*	*	*	*	*
!	!	!	!	!	!	!LO:LB:g=original	!	!	!	!	!
=18	=18	=18	=18	=18	=18	=18	=18	=18	=18	=18	=18
4A\	.	4e/	4cc#\	4A\	u-	4e\	u-	4e/	u-	4cc#\	u-
4AA/	.	4c#/	4a/	4AA/	-na	4e\	-na	4c#X/	-na	4a\	-na
!	!	!	!	!LO:LB:g=original	!	!	!	!	!	!LO:LB:g=original	!
=19	=19	=19	=19	=19	=19	=19	=19	=19	=19	=19	=19
*tremolo	*	*	*	*	*	*	*	*	*	*	*
!	!	!	!	!	!	!	!	!	!	!LO:TX:a:t=1.	!
8AA/L	.	(16c#/LL	(16e/LL	2r	.	2r	.	2r	.	2r	.
.	.	16A/)	16c#/)	.	.	.	.	.	.	.	.
8AA/	.	(16e/	(16a/	.	.	.	.	.	.	.	.
.	.	16c#/JJ)	16e/JJ)	.	.	.	.	.	.	.	.
8AA/	.	(16a/LL	(16cc#\LL	.	.	.	.	.	.	.	.
.	.	16e/J)	16a\J)	.	.	.	.	.	.	.	.
!	!	!LO:TX:a:t=|	!LO:TX:a:t=|	!	!	!	!	!	!	!	!
8AA/J	.	8cc#/J	8ee\J	.	.	.	.	.	.	.	.
*Xtremolo	*	*	*	*	*	*	*	*	*	*	*
!	!	!	!LO:LB:g=original	!	!	!	!	!	!	!	!
=20	=20	=20!|:	=20	=20	=20	=20	=20	=20	=20	=20	=20
8E\L	5 #	4g#X/	4b\	4E\	vo-	4e\	Vo-	4g#X\	Vo-	4b\	Vo-
8e\J	.	.	.	.	.	.	.	.	.	.	.
8E\L	6 4	4a/	4cc#\	4E\	-ce	4e\	-ce	4a\	-ce	4cc#\	-ce
8e\J	.	.	.	.	.	.	.	.	.	.	.
!	!	!	!	!	!	!	!	!LO:LB:g=original	!	!	!
=21	=21	=21	=21	=21	=21	=21	=21	=21	=21	=21	=21
.	.	.	8qqee/	.	.	.	.	.	.	.	.
8E\L	7 #	4b\	4dd\	4E\	pi-	4e\	pi-	4b\	Lau-	4dd\	Lau-
8e\J	.	.	.	.	.	.	.	.	.	.	.
8E\L	6 4	4a/	4cc#\	4E\	-us	4e\	-us	4a\	-des	4cc#\	-des
8e\J	.	.	.	.	.	.	.	.	.	.	.
=22	=22	=22:|!	=22	=22	=22	=22	=22	=22	=22	=22	=22
!	!	!LO:TX:a:t=P:problem=t. 22-23 zapisane powtórką	!	!	!	!	!	!	!	!	!
8E\L	5 #	4g#X/yy	4b\	4E\	Lau-	4e\	Lau-	(4g#X\	can-	(4b\	can-
8e\J	.	.	.	.	.	.	.	.	.	.	.
8E\L	6 4	4a/yy	4cc#\	4E\	-des	4e\	-des	4a\)	.	4cc#\)	.
8e\J	.	.	.	.	.	.	.	.	.	.	.
=23	=23	=23	=23	=23	=23	=23	=23	=23	=23	=23	=23
8E\L	7 #	4b\yy	4dd\	4E\	Ma-	4e\	Ma-	(4b\	-te-	(4dd\	-te-
8e\J	.	.	.	.	.	.	.	.	.	.	.
8E\L	6 4	4a/yy	4cc#\	4E\	-ri-	4e\	-ri-	4a\)	.	4cc#\)	.
8e\J	.	.	.	.	.	.	.	.	.	.	.
=24	=24	=24	=24	=24	=24	=24	=24	=24	=24	=24	=24
4E\	5 #	16g#X/LL	16b/LL	4E\	-ae	4e\	-ae	4g#X\	-mus,	4b\	-mus,
.	.	16f#/	16a/	.	.	.	.	.	.	.	.
.	.	16e/	16g#X/	.	.	.	.	.	.	.	.
.	.	16f#/JJ	16a/JJ	.	.	.	.	.	.	.	.
4r	.	16g#/LL	16b\LL	4r	.	4r	.	4r	.	4r	.
.	.	16f#/	16a\	.	.	.	.	.	.	.	.
.	.	16g#/	16b\	.	.	.	.	.	.	.	.
.	.	16a/JJ	16cc#\JJ	.	.	.	.	.	.	.	.
=25	=25	=25	=25	=25	=25	=25	=25	=25	=25	=25	=25
*	*	*	*	*	*	*2\right	*	*	*	*	*
!	!	!	!	!	!	!LO:TX:a:t=P:problem=interpretacja niepewna&colon;global	!	!	!	!	!
8E\L	7 #	8b\	8dd\	8E\L	can-	2BT\	can-	8b\	Ma-	8dd\	Ma-
8F#\	.	4g#X/	4b\	8F#\	.	.	.	(4g#X\	.	(4b\	.
8G#X\	_	.	.	(8G#X\	.	.	.	.	.	.	.
8E\J	.	8b\	8dd\	8E\J)	.	.	.	8b\)	.	8dd\)	.
!	!	!LO:LB:g=original	!	!	!	!	!	!	!	!	!
=26	=26	=26	=26	=26	=26	=26	=26	=26	=26	=26	=26
!LO:TX:A:t=P:problem=mixed beam	!	!	!	!	!	!	!	!	!	!	!
8A\L	x	8a\L	8cc#\L	(8A\L	-te-	(8c#\L	-te-	(8a\L	-ri-	(8cc#\L	-ri-
8G#X\	6 4	8b\	8dd\	8G#X\J)	.	8B\J)	.	8b\J)	.	8dd\J)	.
8A\	.	8cc#\	8ee\	8A\	-mus	(8A\L	.	8cc#\	-ae	8ee\	-ae
!	!	!	!	!LO:LB:g=original	!	!	!	!	!	!	!
8C#/J	6 3	8ee\J	8aa\J	(16C#/LL	Ma-	8e\J)	.	8cc#\	can-	8aa\	can-
.	.	.	.	16D/JJ)	.	.	.	.	.	.	.
!LO:LB:g=original	!	!	!	!	!	!LO:LB:g=original	!	!	!	!	!
=27	=27	=27	=27	=27	=27	=27	=27	=27	=27	=27	=27
4E\	5 #	8a\L	8cc#\L	2ET\	-ri-	2eT\	.	(4a\	-te-	(4cc#\	-te-
.	.	8cc#\	8aa\	.	.	.	.	.	.	.	.
4EE/	.	8b\	8b\	.	.	.	.	4g#X\)	.	4b\)	.
.	.	8dd\J	8gg#X\J	.	.	.	.	.	.	.	.
=28	=28	=28	=28	=28	=28	=28	=28	=28	=28	=28	=28
!	!	!LO:TX:a:t=|	!LO:TX:A:t=P:problem=mixed beam	!	!	!	!	!	!	!	!
4AA/	.	8cc#\L	16a/LL	4AA/	-ae.	4e\	-mus,	4a\	-mus,	4a\	-mus
!	!	!	!LO:TX:a:t=|	!	!	!	!	!	!	!	!
.	.	.	16aa\	.	.	.	.	.	.	.	.
.	.	(16b\L	(16gg#X\	.	.	.	.	.	.	.	.
.	.	16cc#\JJ)	16aa\JJ)	.	.	.	.	.	.	.	.
8r	.	(16cc#\LL	(16ee\LL	4r	.	4r	.	4r	.	4r	.
.	.	16a\)	16cc#\)	.	.	.	.	.	.	.	.
8E\	7 #	(16b\	(16dd\	.	.	.	.	.	.	.	.
.	.	16g#X\JJ)	16b\JJ)	.	.	.	.	.	.	.	.
!	!	!	!	!	!	!	!	!	!	!LO:LB:g=original	!
=29	=29	=29	=29	=29	=29	=29	=29	=29	=29	=29	=29
!	!	!	!	!	!	!	!	!	!	!LO:TX:a:t=3.	!
4A\	.	(16a\LL	16cc#\LL	1r	.	1r	.	1r	.	1r	.
!	!	!	!LO:TX:a:t=|	!	!	!	!	!	!	!	!
.	.	16cc#\)	16aa\	.	.	.	.	.	.	.	.
.	.	(16b\	(16gg#X\	.	.	.	.	.	.	.	.
.	.	16cc#\JJ)	16aa\JJ)	.	.	.	.	.	.	.	.
!	!	!	!LO:LB:g=original	!	!	!	!	!	!	!	!
8r	.	(16e/LL	(16cc#\LL	.	.	.	.	.	.	.	.
.	.	16c#/)	16a\)	.	.	.	.	.	.	.	.
8E\	7 #	(16d/	(16b\	.	.	.	.	.	.	.	.
.	.	16B/JJ)	16g#X\JJ)	.	.	.	.	.	.	.	.
=30	=30	=30	=30	=30	=30	=30	=30	=30	=30	=30	=30
!LO:TX:a:t=|	!	!	!	!	!	!	!	!	!	!	!
8A\L	.	8c#/L	8a/L	.	.	.	.	.	.	.	.
!LO:TX:a:t=|	!	!	!	!	!	!	!	!	!	!	!
8F#\	.	8f#/	8f#/	.	.	.	.	.	.	.	.
!LO:TX:a:t=|	!	!	!	!	!	!	!	!	!	!	!
8D\	.	8d/	8d/	.	.	.	.	.	.	.	.
!LO:TX:a:t=|	!	!	!	!	!	!	!	!	!	!	!
8E\J	.	8e/J	8e/J	.	.	.	.	.	.	.	.
=31	=31	=31	=31	=31	=31	=31	=31	=31	=31	=31	=31
!	!	!	!LO:TX:A:t=P:problem=mixed beam	!	!	!	!	!	!	!	!
4AA/	.	8A/L	8A/L	2r	.	2r	.	2r	.	2r	.
.	.	(16b/L	(16ggn\L	.	.	.	.	.	.	.	.
.	.	16g/JJ)	16ee\JJ)	.	.	.	.	.	.	.	.
4r	.	16a/LL	(16ff#\LL	.	.	.	.	.	.	.	.
.	.	16f#/	16dd\)	.	.	.	.	.	.	.	.
.	.	16g/	(16ee\	.	.	.	.	.	.	.	.
.	.	16e/JJ	16cc#\JJ)	.	.	.	.	.	.	.	.
!	!	!	!	!	!	!	!	!LO:LB:g=original	!	!	!
=32	=32	=32	=32	=32	=32	=32	=32	=32	=32	=32	=32
4d\	.	4ff#/ 4a/ 4d/	4aa\	4d\	E-	4A\	e-	4ff#\	E-	4aa\	E-
4D/	.	4dd\	4ff#\	4D/	-ja	4d\	-ja	4dd\	-ja	4ff#\	-ja
!	!	!LO:LB:g=original	!	!	!	!	!	!	!	!	!
=33	=33	=33	=33	=33	=33	=33	=33	=33	=33	=33	=33
*tremolo	*	*	*	*	*	*	*	*	*	*	*
!	!	!	!	!	!	!	!	!	!	!LO:TX:a:t=1	!
8D\L	.	(16a/LL	(16dd\LL	2r	.	2r	.	2r	.	2r	.
.	.	16f#/)	16a\)	.	.	.	.	.	.	.	.
8D\	.	(16dd/	(16ff#\	.	.	.	.	.	.	.	.
.	.	16a/JJ)	16dd\JJ)	.	.	.	.	.	.	.	.
8D\	.	(16ff#\LL	(16aa\LL	.	.	.	.	.	.	.	.
.	.	16dd\J)	16ff#\J)	.	.	.	.	.	.	.	.
8D\J	.	8aa\J	8ddd\J	.	.	.	.	.	.	.	.
*Xtremolo	*	*	*	*	*	*	*	*	*	*	*
=34	=34	=34	=34	=34	=34	=34	=34	=34	=34	=34	=34
!LO:TX:A:t=P:problem=mixed beam	!	!	!	!	!	!	!	!	!	!	!
8D/L	5 3	8f#/L	8a\L	8D\	om-	8d\	om-	8f#/	om-	8a\	om-
8d\J	.	8f#/	8a\	8D\	-nes	8d\	-nes	8f#/	-neſ	8a\	-nes
!LO:TX:A:t=P:problem=mixed beam	!	!	!	!	!	!	!	!	!	!	!
8D/L	6 4	8f#/	8a\	8D\	u-	8d\	u-	8f#/	u-	8a\	u-
8d\J	.	8g/J	8b\J	8D\	-na	8d\	-na	8g/	-na	8bn\	-na
=35	=35	=35	=35	=35	=35	=35	=35	=35	=35	=35	=35
!LO:TX:A:t=P:problem=mixed beam	!	!	!	!	!	!	!	!	!	!	!
.	.	.	8qqdd/	.	.	.	.	8qqcc#/	.	.	.
8D/L	n7 3	4a/	4ccn\	4D\	Vo-	4d\	Vo-	4a\	Vo-	(4ccn\	Vo-
8d\J	.	.	.	.	.	.	.	.	.	.	.
!LO:TX:A:t=P:problem=mixed beam	!	!	!	!	!	!	!	!	!	!	!
8D/L	6 4	4g/	4b\	4D\	-ce	4d\	-ce	4g\	-ce	4b\)	-ce
8d\J	.	.	.	.	.	.	.	.	.	.	.
!	!	!	!	!LO:LB:g=original	!	!	!	!	!	!	!
=36	=36	=36	=36	=36	=36	=36	=36	=36	=36	=36	=36
!LO:TX:A:t=P:problem=mixed beam	!	!	!	!	!	!	!	!	!	!	!
8D/L	5 3	4f#/	4a/	4D\	Lau-	4d\	Lau-	4f#/	Lau-	4a\	Lau-
8d\J	.	.	.	.	.	.	.	.	.	.	.
!LO:TX:A:t=P:problem=mixed beam	!	!	!	!	!	!	!	!	!	!	!
8D/L	6 4	8f#/L	8a/L	8D\	-des	8d\	-des	8f#/	-des	8a\	-des
8d\J	.	8g/J	8b/J	8D\	Ma-	8d\	Ma-	8g/	Ma-	8b\	Ma-
!LO:LB:g=original	!	!	!	!	!	!LO:LB:g=original	!	!	!	!	!
=37	=37	=37	=37	=37	=37	=37	=37	=37	=37	=37	=37
!LO:TX:A:t=P:problem=mixed beam	!	!	!	!	!	!	!	!	!	!	!
8D/L	n7	8a/L	(8ccn\L	2DT\	-ri-	2dT\	-ri-	(8a\L	-ri-	(8ccn\L	-ri-
8d\J	.	8g/	8b\)	.	.	.	.	8g\	.	8b\)	.
!LO:TX:A:t=P:problem=mixed beam	!	!	!	!	!	!	!	!	!	!	!
8D/L	.	8a/	(8cc\	.	.	.	.	8a\	.	(8cc\	.
8d\J	.	8f#/J	8a\J)	.	.	.	.	8f#\J)	.	8a\J)	.
!	!	!	!LO:LB:g=original	!	!	!	!	!	!	!	!
=38	=38	=38	=38	=38	=38	=38	=38	=38	=38	=38	=38
4G\	.	(16g/LL	16b\LL	4G\	-ae	4d\	-ae,	4g\	-ae,	4b\	-ae,
!	!	!	!LO:TX:a:t=|	!	!	!	!	!	!	!	!
.	.	16b/)	16gg\	.	.	.	.	.	.	.	.
.	.	(16a/	(16ff#X\	.	.	.	.	.	.	.	.
.	.	16b/JJ)	16gg\JJ)	.	.	.	.	.	.	.	.
8r	.	(16b/LL	(16dd\LL	4r	.	4r	.	4r	.	4r	.
.	.	16g/)	16b\)	.	.	.	.	.	.	.	.
8D/	n7	(16a/	(16ccn\	.	.	.	.	.	.	.	.
.	.	16f#/JJ)	16a\JJ)	.	.	.	.	.	.	.	.
=39	=39	=39	=39	=39	=39	=39	=39	=39	=39	=39	=39
!	!	!	!	!	!	!	!	!	!	!LO:TX:a:t=2	!
4G\	.	(16g/LL	16b\LL	1r	.	1r	.	1r	.	1r	.
!	!	!	!LO:TX:a:t=|	!	!	!	!	!	!	!	!
.	.	16b/)	16gg\	.	.	.	.	.	.	.	.
.	.	(16a/	(16ff#\	.	.	.	.	.	.	.	.
.	.	16b/JJ)	16gg\JJ)	.	.	.	.	.	.	.	.
8r	.	(16d/LL	(16b/LL	.	.	.	.	.	.	.	.
.	.	16B/)	16g/)	.	.	.	.	.	.	.	.
8D/	n7	(16cn/	(16a/	.	.	.	.	.	.	.	.
.	.	16A/JJ)	16f#/JJ)	.	.	.	.	.	.	.	.
=40	=40	=40	=40	=40	=40	=40	=40	=40	=40	=40	=40
!	!	!LO:TX:A:t=P:problem=mixed beam	!	!	!	!	!	!	!	!	!
8G\L	.	8B/L	8g/L	.	.	.	.	.	.	.	.
!LO:TX:a:t=|	!	!	!	!	!	!	!	!	!	!	!
16B\L	.	(16b\L	16b/L	.	.	.	.	.	.	.	.
!LO:TX:a:t=|	!	!	!	!	!	!	!	!	!	!	!
16A\JJ	.	16a\JJ)	16a/JJ	.	.	.	.	.	.	.	.
!	!	!LO:LB:g=original	!	!	!	!	!	!	!	!	!
8G\L	.	8g/L	8g/L	.	.	.	.	.	.	.	.
8F#\J	6\ 3	8f#/J	8f#/J	.	.	.	.	.	.	.	.
=41	=41	=41	=41	=41	=41	=41	=41	=41	=41	=41	=41
4E\	#	4gg#X/ 4b/ 4e/	4bb/ 4ee/ 4b/ 4e/	4e\	E-	4B\	E-	4gg#X\	E-	4bb\	E-
4EE/	.	4ee\	4gg#X\	4E/	-ja	4e\	-ja	4ee\	-ja	4gg#X\	-ja
!	!	!	!	!	!	!	!	!LO:LB:g=original	!	!	!
=42	=42	=42	=42	=42	=42	=42	=42	=42	=42	=42	=42
*tremolo	*	*	*	*	*	*	*	*	*	*	*
!	!	!	!	!	!	!	!	!	!	!LO:TX:a:t=1	!
8E\L	#	(16b\LL	(16ee\LL	2r	.	2r	.	2r	.	2r	.
.	.	16g#X\)	16b\)	.	.	.	.	.	.	.	.
8E\	.	16ee\	(16gg#X\	.	.	.	.	.	.	.	.
.	.	16b\JJ	16ee\JJ)	.	.	.	.	.	.	.	.
8E\	.	(16gg#X\LL	(16bb\LL	.	.	.	.	.	.	.	.
.	.	16ee\J)	16gg#\J)	.	.	.	.	.	.	.	.
8E\J	.	8bb\J	8eee\J	.	.	.	.	.	.	.	.
*Xtremolo	*	*	*	*	*	*	*	*	*	*	*
=43	=43	=43	=43	=43	=43	=43	=43	=43	=43	=43	=43
8E\L	5 #	8g#X/L	4b\	8E\	om-	8e\	om-	8g#X\	om-	8b\	Om-
8e\J	.	8g#/	.	8E\	-nes	8e\	-nes	8g#\	-nes	8b\	-nes
8E\L	6 4	8g#/	4cc#\	8E\	u-	8e\	u-	8g#\	u-	8b\	u-
8e\J	.	8a/J	.	8E\	-na	8e\	-na	8a\	-na	8cc#X\	-na
=44	=44	=44	=44	=44	=44	=44	=44	=44	=44	=44	=44
.	.	8qqcc#/	.	.	.	.	.	.	.	.	.
8E\L	7 #	4b\	4dd\	4E\	Vo-	4e\	Vo-	4b\	Vo-	4dd\	vo-
8e\J	.	.	.	.	.	.	.	.	.	.	.
8E\L	6 4	4a/	4cc#\	4E\	-ce	4e\	-ce	4a\	-ce	4cc#\	-ce
8e\J	.	.	.	.	.	.	.	.	.	.	.
!	!	!	!	!LO:LB:g=original	!	!	!	!	!	!	!
=45	=45	=45	=45	=45	=45	=45	=45	=45	=45	=45	=45
8E\L	5 #	4g#X/	4b\	4E\	Lau-	4e\	Lau-	4g#X\	Lau-	4b\	Lau-
8e\J	.	.	.	.	.	.	.	.	.	.	.
8E\L	6 4	8g#/L	8b\L	8E\	-des	8e\	-des	8g#\	-des	8b\	-des
8e\J	.	8a/J	8cc#\J	8E\	Ma-	8e\	Ma-	8a\	Ma-	8cc#\	Ma-
!LO:LB:g=original	!	!	!	!	!	!LO:LB:g=original	!	!	!	!	!
=46	=46	=46	=46	=46	=46	=46	=46	=46	=46	=46	=46
4E\	7 #	8b\L	8dd\L	2ET\	-ri-	2e\	-ri-	(8b\L	-ri-	(8dd\L	-ri-
.	.	8a\	8cc#\	.	.	.	.	8a\)	.	8cc#\)	.
8r	.	8b\	8dd\	.	.	.	.	(8b\	.	(8dd\	.
8E\	_	8g#X\J	8b\J	.	.	.	.	8g#X\J)	.	8b\J)	.
!	!	!	!LO:LB:g=original	!	!	!	!	!	!	!	!
=47	=47	=47	=47	=47	=47	=47	=47	=47	=47	=47	=47
4A\	x	(16a\LL	16cc#\LL	4A\	-ae	4e\	-ae	4a\	-ae,	4cc#\	-ae
!	!	!	!LO:TX:a:t=|	!	!	!	!	!	!	!	!
.	.	16cc#\)	16aa\	.	.	.	.	.	.	.	.
.	.	(16b\	(16gg#X\	.	.	.	.	.	.	.	.
.	.	16cc#\JJ)	16aa\JJ)	.	.	.	.	.	.	.	.
8r	.	(16cc#\LL	(16ee\LL	4r	.	4r	.	4r	.	4r	.
.	.	16a\	16cc#\)	.	.	.	.	.	.	.	.
8E\	7 #	16b\)	(16dd\	.	.	.	.	.	.	.	.
.	.	16g#X\JJ	16b\JJ)	.	.	.	.	.	.	.	.
!	!	!LO:LB:g=original	!	!	!	!	!	!	!	!	!
=48	=48	=48	=48	=48	=48	=48	=48	=48	=48	=48	=48
!	!	!	!	!	!	!	!	!	!	!LO:TX:a:t=1	!
4A\	.	(16a\LL	16cc#\LL	2r	.	2r	.	2r	.	2r	.
!	!	!	!LO:TX:a:t=|	!	!	!	!	!	!	!	!
.	.	16cc#\)	16aa\	.	.	.	.	.	.	.	.
.	.	(16b\	(16gg#X\	.	.	.	.	.	.	.	.
.	.	16cc#\JJ)	16aa\JJ)	.	.	.	.	.	.	.	.
8r	.	(16e/LL	(16cc#/LL	.	.	.	.	.	.	.	.
.	.	16c#/)	16a/)	.	.	.	.	.	.	.	.
8E\	.	(16d/	(16b/	.	.	.	.	.	.	.	.
.	.	16B/JJ)	16g#X/JJ)	.	.	.	.	.	.	.	.
!	!	!	!	!	!	!	!	!LO:LB:g=original	!	!	!
=49	=49	=49	=49	=49	=49	=49	=49	=49	=49	=49	=49
!LO:TX:A:t=P:problem=mixed beam	!	!LO:TX:A:t=P:problem=mixed beam	!LO:TX:A:t=P:problem=mixed beam	!	!	!	!	!	!	!	!
8AA/L	7	8c#/L	8a/L	8r	.	8r	.	8r	.	8r	.
8A\	_	8ee\	8ggn\	8A\	lae-	8c#\	lae-	8ee\	lae-	8gg\	le-
8c#\	.	8ee\	8gg\	8c#\	-te	8A\	-te	8ee\	-te	8gg\	-te
8e\J	5 3	8dd\J	8ff#\J	8d\	can-	8A\	can-	8dd\	can-	8ff#\	can-
!	!	!	!	!	!	!	!	!	!	!LO:LB:g=original	!
=50	=50	=50	=50	=50	=50	=50	=50	=50	=50	=50	=50
!	!	! (?)	!	!	!	!	!	!	!	!	!
.	.	.	8qqgg/	.	.	.	.	8qqee/	.	.	.
4A\	4	4dd\	4ff#\	4A\	-te-	4A\	-te-	4dd\	-te-	4ff#\	-te-
4AA/	3	4cc#\	4ee\	4A\	-muſ,	4A\	-muſ	4cc#\	-muſ,	4ee\	-mus
=51	=51	=51	=51	=51	=51	=51	=51	=51	=51	=51	=51
!LO:TX:A:t=P:problem=mixed beam	!	!	!LO:TX:A:t=P:problem=mixed beam	!	!	!	!	!	!	!	!
8A\L	7	8c#/L	8A/L	8r	.	8r	.	8r	.	8r	.
*	*	*	*	*	*	*	*ij	*	*	*	*
8AA/	_	8g/	8ee\	8A\	lae-	8c#\	lae-	8g/	lae-	8ee\	le-
8C#/	.	8g/	8ee\	8c#\	-te	8A\	-te	8g/	-te	8ee\	-te
8D\J	5 3	8f#/J	8dd\J	8d\	can-	8A\	can-	8f#/	can-	8dd\	can-
!	!	!	!	!LO:LB:g=original	!	!	!	!	!	!	!
=52	=52	=52	=52	=52	=52	=52	=52	=52	=52	=52	=52
!	!	! (?)	!	!	!	!	!	!	!	!	!
.	.	.	8qqee/	.	.	.	.	.	.	.	.
4A\	4	4f#/	4dd\	4A\	-te-	4A\	-te-	4f#/	-te-	4dd\	-te-
4AA/	3	4e/	4cc#\	4A\	-mus,	4A\	-muſ	4e/	-mus	4cc#\	-mus
*	*	*	*	*	*	*	*Xij	*	*	*	*
=53	=53	=53	=53	=53	=53	=53	=53	=53	=53	=53	=53
!LO:TX:A:t=P:problem=mixed beam	!	!	!	!	!	!	!	!	!	!	!
8D\L	5 3	4dd\	4ff#\	4d\	Re-	4d\	Re-	4dd\	Re-	4ff#\	Re-
8d\J	.	.	.	.	.	.	.	.	.	.	.
!LO:TX:A:t=P:problem=mixed beam	!	!	!	!	!	!	!	!	!	!	!
8D/L	6 4	4ee\	4gg\	4d\	-gi-	4d\	-gi-	4ee\	-gi-	4gg\	-gi-
8d\J	.	.	.	.	.	.	.	.	.	.	.
!	!	!	!	!	!	!LO:LB:g=original	!	!	!	!	!
=54	=54	=54	=54	=54	=54	=54	=54	=54	=54	=54	=54
8D/	4	8ff#\L	8aa\L	4D/	-nae	4d\	-nae	4ff#\	-nae	4aa\	-na
.	3	.	.	.	.	.	.	.	.	.	.
8r	.	(16dd\L	(16ff#\L	.	.	.	.	.	.	.	.
.	.	16ee\JJ)	16gg\JJ)	.	.	.	.	.	.	.	.
!LO:TX:A:t=P:problem=mixed beam	!	!	!	!	!	!	!	!	!	!	!
8d\L	.	8ff#\L	8aa\L	4r	.	4r	.	4r	.	4r	.
8D/J	.	8dd\J	8ff#\J	.	.	.	.	.	.	.	.
!LO:LB:g=original	!	!	!LO:LB:g=original	!	!	!	!	!	!	!	!
=55	=55	=55	=55	=55	=55	=55	=55	=55	=55	=55	=55
!LO:TX:A:t=P:problem=mixed beam	!	!	!	!	!	!	!	!	!	!	!
8AA/L	5 3	4cc#\	4ee\	4.A\	glo-	4c#\	Cae-	(4cc#\	glo-	(4ee\	glo-
8A\	.	.	.	.	.	.	.	.	.	.	.
8AA/	6 4	4dd\	4ff#\	.	.	4A\	-lo-	8.dd\)	.	8.ff#\)	.
8A\J	.	.	.	8A\	-ri-	.	.	.	.	.	.
.	.	.	.	.	.	.	.	16dd\	-ri-	16ff#\	-ri-
=56	=56	=56	=56	=56	=56	=56	=56	=56	=56	=56	=56
8AA/	7	8ee\L	8gg\L	4AA/	-ae	4A\	-rum	4ee\	-ae	4gg\	-ae
8r	.	(16cc#\L	(16ee\L	.	.	.	.	.	.	.	.
.	.	16dd\JJ)	16ff#\JJ)	.	.	.	.	.	.	.	.
!LO:TX:A:t=P:problem=mixed beam	!	!	!	!	!	!	!	!	!	!	!
8A\L	.	8ee\L	8gg\L	4r	.	4r	.	4r	.	4r	.
8AA/J	.	8cc#\J	8ee\J	.	.	.	.	.	.	.	.
!	!	!LO:LB:g=original	!	!	!	!	!	!LO:LB:g=original	!	!	!
=57	=57	=57	=57	=57	=57	=57	=57	=57	=57	=57	=57
!LO:TX:A:t=P:problem=mixed beam	!	!	!	!	!	!	!	!	!	!	!
8D/L	3	4f#/	4dd\	4d\	Re-	2d\	at-	4f#/	Re-	4dd\	Re-
8d\J	.	.	.	.	.	.	.	.	.	.	.
!LO:TX:A:t=P:problem=mixed beam	!	!	!	!	!	!	!	!	!	!	!
8D/L	4 2	4g/	4ee\	4d\	-gi-	.	.	4g/	-gi-	4ee\	-gi-
8d\J	.	.	.	.	.	.	.	.	.	.	.
=58	=58	=58	=58	=58	=58	=58	=58	=58	=58	=58	=58
!	!	!LO:TX:a:t=|	!LO:TX:a:t=|	!	!	!	!	!	!	!	!
8D/	5 3	8a/L	8ff#\L	4D/	-nae	4d\	-que	4a\	-nae	4ff#\	-na
8r	.	(16f#/L	(16dd\L	.	.	.	.	.	.	.	.
.	.	16g/JJ)	16ee\JJ)	.	.	.	.	.	.	.	.
!LO:TX:A:t=P:problem=mixed beam	!	!	!	!	!	!	!	!	!	!	!
8d\L	.	8a/L	8ff#\L	4r	.	4r	.	4r	.	4r	.
8D\J	.	8f#/J	8dd\J	.	.	.	.	.	.	.	.
!	!	!	!	!	!	!	!	!	!	!LO:LB:g=original	!
=59	=59	=59	=59	=59	=59	=59	=59	=59	=59	=59	=59
!LO:TX:A:t=P:problem=mixed beam	!	!	!	!	!	!	!	!	!	!	!
8AA/L	5 3	4e/	4cc#\	4.A\	glo-	4.c#\	glo-	(4e/	glo-	(4cc#\	glo-
8A\	.	.	.	.	.	.	.	.	.	.	.
8AA\	6 4	4f#/	4dd\	.	.	.	.	8.f#/)	.	8.dd\)	.
8A\J	.	.	.	8A\	-ri-	8A\	-ri-	.	.	.	.
.	.	.	.	.	.	.	.	16f#/	-ri-	16dd\	-ri-
=60	=60	=60	=60	=60	=60	=60	=60	=60	=60	=60	=60
8AA/	7	8g/L	8ee\L	4AA/	-ae	4A\	-ae	4g\	-ae	4ee\	-ae
8r	.	(16e/L	(16cc#\L	.	.	.	.	.	.	.	.
.	.	16f#/JJ)	16dd\JJ)	.	.	.	.	.	.	.	.
!LO:TX:A:t=P:problem=mixed beam	!	!	!	!	!	!	!	!	!	!	!
8A\L	.	8g/L	8ee\L	4r	.	4r	.	4r	.	4r	.
8AA/J	.	8e/J	8cc#\J	.	.	.	.	.	.	.	.
!	!	!	!	!LO:LB:g=original	!	!	!	!	!	!	!
=61	=61	=61	=61	=61	=61	=61	=61	=61	=61	=61	=61
*	*	*	*	*	*	*	*	*2\right	*	*2\right	*
!	!	!LO:TX:a:t=P:problem=interpretacja łuków niepewna	!	!	!	!	!	!	!	!	!
8AA/L	7	(16ee\LL	(16gg\LL	8A\L	ae-	(8c#\L	Re-	(2ee\	ae-	(2gg\	ae-
.	.	16cc#\)	16ee\)	.	.	.	.	.	.	.	.
8BB/	.	(16ee\	(16gg\	8B\	.	8d\)	.	.	.	.	.
.	.	16cc#\JJ)	16ee\JJ)	.	.	.	.	.	.	.	.
8C#/	.	(16ee\LL	(16gg\LL	(8c#\	.	(8e\	.	.	.	.	.
.	.	16cc#\)	16ee\)	.	.	.	.	.	.	.	.
8AA/J	.	(16ee\	(16gg\	8A\J)	.	8c#\J)	.	.	.	.	.
.	.	16cc#\JJ)	16ee\JJ)	.	.	.	.	.	.	.	.
=62	=62	=62	=62	=62	=62	=62	=62	=62	=62	=62	=62
8D\L	.	(16dd\LL	(16ff#\LL	(8D\L	.	4A\	-gi-	2dd\)	.	2ff#\)	.
.	.	16a\)	16dd\)	.	.	.	.	.	.	.	.
8E\	.	(16dd\	(16ff#\	8E\J)	.	.	.	.	.	.	.
.	.	16a\JJ)	16dd\JJ)	.	.	.	.	.	.	.	.
8F#\	.	(16dd\LL	(16ff#\LL	(8F#\L	.	4A\	-nae	.	.	.	.
.	.	16a\)	16dd\)	.	.	.	.	.	.	.	.
8D\J	.	(16dd\	(16ff#\	8D\J)	.	.	.	.	.	.	.
.	.	16a\JJ)	16dd\JJ)	.	.	.	.	.	.	.	.
!LO:LB:g=original	!	!	!	!	!	!	!	!	!	!	!
=63	=63	=63	=63	=63	=63	=63	=63	=63	=63	=63	=63
!LO:TX:A:t=P:problem=mixed beam	!	!	!	!	!	!	!	!	!	!	!
8G\L	.	4b\	4gg\	8G\L	.	4B\	glo-	4b\	-ter-	4gg\	-ter-
8E\	.	.	.	8E\J	.	.	.	.	.	.	.
8A\	6 4	(16a/LL	(16ff#\LL	4A\	-ter-	8.A\	.	(16a/LL	.	(16ff#\LL	.
.	.	16g/)	16ee\)	.	.	.	.	16g/JJ)	.	16ee\)	.
8AA/J	5 3	(16f#/	(16dd\	.	.	.	.	(16f#/LL	.	(16dd\	.
.	.	16e/JJ)	16cc#\JJ)	.	.	16A\	-ri-	16e/JJ)	.	16cc#\JJ)	.
!	!	!LO:LB:g=original	!LO:LB:g=original	!	!	!LO:LB:g=original	!	!	!	!	!
=64	=64	=64	=64	=64	=64	=64	=64	=64	=64	=64	=64
.	.	.	.	.	.	.	.	.	.	16qqcc#/	.
4D\	.	(16a\LL	16dd\LL	4D\	-nae.	4A\	-ae.	4f#/	-nae.	4dd\	-nae.
!	!	!	!LO:TX:a:t=|	!	!	!	!	!	!	!	!
.	.	16ff#\)	16ddd\	.	.	.	.	.	.	.	.
.	.	(16ee\	(16ccc#\	.	.	.	.	.	.	.	.
.	.	16ff#\JJ)	16ddd\JJ)	.	.	.	.	.	.	.	.
8r	.	(16ff#\LL	(16aa\LL	4r	.	4r	.	4r	.	4r	.
.	.	16dd\)	16ff#\)	.	.	.	.	.	.	.	.
8AA/	7	(16ee\	(16gg\	.	.	.	.	.	.	.	.
.	.	16cc#\JJ)	16ee\JJ)	.	.	.	.	.	.	.	.
=65	=65	=65	=65	=65	=65	=65	=65	=65	=65	=65	=65
!	!	!	!	!	!	!	!	!LO:TX:a:t=3	!	!LO:TX:a:t=3.	!
4D\	.	(16dd\LL	(16ff#\LL	1r	.	1r	.	1r	.	1r	.
.	.	16ff#\)	16ddd\)	.	.	.	.	.	.	.	.
.	.	(16dd\	(16ccc#\	.	.	.	.	.	.	.	.
.	.	16ff#\JJ)	16ddd\JJ)	.	.	.	.	.	.	.	.
8r	.	(16a/LL	(16ff#\LL	.	.	.	.	.	.	.	.
.	.	16f#/)	16dd\)	.	.	.	.	.	.	.	.
8AA/	7	(16g/	(16ee\	.	.	.	.	.	.	.	.
.	.	16e/JJ)	16cc#\JJ)	.	.	.	.	.	.	.	.
=66	=66	=66	=66	=66	=66	=66	=66	=66	=66	=66	=66
8D\L	5 3	16f#/LL	8dd\L	.	.	.	.	.	.	.	.
.	.	16a/	.	.	.	.	.	.	.	.	.
!	!	!	!LO:TX:a:t=P:problem=belka między "d" a "ff#"	!	!	!	!	!	!	!	!
8d\	.	16f#/	8ddd\ 8ff#\ 8d/	.	.	.	.	.	.	.	.
.	.	16a/JJ	.	.	.	.	.	.	.	.	.
8A\	_ _	16f#/LL	8ddd\ 8ff#\ 8d/	.	.	.	.	.	.	.	.
.	.	16a/	.	.	.	.	.	.	.	.	.
8F#\J	.	16f#/	8ddd\J 8ff#\ 8d/	.	.	.	.	.	.	.	.
.	x	16a/JJ	.	.	.	.	.	.	.	.	.
=67	=67	=67	=67	=67	=67	=67	=67	=67	=67	=67	=67
*	*	*^	*	*	*	*	*	*	*	*	*
!	!	!	!	!	!LO:TX:a:t=Il Fine	!	!LO:TX:a:t=Finiſ	!	!LO:TX:a:t=Finiſ.	!	!LO:TX:a:t=finis	!
4D/	.	4a/	4f#\	4ddd/ 4ff#/ 4a/ 4d/	2r	.	2r	.	2r	.	2r	.
!LO:TX:a:t=Il Fine	!	!LO:TX:a:t=Il Fine	!	!LO:TX:a:t=Il Fine	!	!	!	!	!	!	!	!
4r	.	4r	4ryy	4r	.	.	.	.	.	.	.	.
*	*	*v	*v	*	*	*	*	*	*	*	*	*
==	==	==	==	==	==	==	==	==	==	==	==
*-	*-	*-	*-	*-	*-	*-	*-	*-	*-	*-	*-
!!!system-decoration: [(s1,s2,s3,s4)][(s5,s6)]s7
!!!ENC: Kamil Watkowski
!!!END: 2020-07-21
!!!ENC: Leszek Kubiak
!!!END: 2022-02-08
!!!YEC: Copyright 2022 Narodowy Instytut Fryderyka Chopina (https://polishscores.org)
!!!YEM: Licence CC BY 4.0 (https://creativecommons.org/licenses/by/4.0)
